dist/svg/safari.svg

<!-- Generated by Trend Micro Style Portal -->
<svg version="1.1" xmlns="http://www.w3.org/2000/svg" width="16" height="16" viewBox="0 0 16 16">
  <title>safari</title>
  <path fill="rgb(34,34,34)" d="M13.929 7.123l-0.471 0.1c-0.023 0.005-0.050 0.008-0.077 0.008-0 0-0.001 0-0.001 0h0c-0 0-0 0-0.001 0-0.207 0-0.375-0.168-0.375-0.375 0-0.18 0.126-0.33 0.295-0.366l0.002-0 0.456-0.097c-0.375-1.311-1.149-2.407-2.18-3.178l-0.016-0.011-0.252 0.388c-0.068 0.103-0.183 0.17-0.314 0.17h-0c-0.207-0-0.375-0.168-0.375-0.375 0-0.076 0.023-0.147 0.061-0.206l-0.001 0.001 0.256-0.395c-0.843-0.489-1.854-0.78-2.932-0.785h-0.002c-0.313 0.003-0.617 0.030-0.913 0.079l0.035-0.005 0.099 0.465c0.005 0.023 0.008 0.050 0.008 0.078 0 0.18-0.126 0.33-0.295 0.367l-0.002 0c-0.023 0.005-0.050 0.008-0.077 0.008-0 0-0.001 0-0.001 0h0c-0.179-0-0.33-0.126-0.367-0.294l-0-0.002-0.096-0.453c-1.31 0.376-2.406 1.148-3.18 2.177l-0.011 0.015 0.39 0.253c0.104 0.068 0.172 0.184 0.172 0.315 0 0.207-0.168 0.375-0.375 0.375-0.076 0-0.147-0.023-0.207-0.062l0.001 0.001-0.394-0.256c-0.49 0.844-0.781 1.856-0.786 2.936v0.001c0.003 0.311 0.030 0.614 0.079 0.91l-0.005-0.034 0.464-0.099c0.023-0.005 0.050-0.008 0.078-0.008 0.207 0 0.375 0.168 0.375 0.375 0 0.18-0.126 0.33-0.295 0.366l-0.002 0-0.461 0.098c0.379 1.31 1.154 2.405 2.186 3.176l0.016 0.011 0.252-0.388c0.068-0.103 0.183-0.17 0.314-0.17 0.207 0 0.375 0.168 0.375 0.375 0 0.075-0.022 0.146-0.061 0.204l0.001-0.001-0.259 0.398c0.844 0.489 1.856 0.78 2.935 0.786h0.002c0.312-0.003 0.616-0.029 0.913-0.078l-0.034 0.005-0.1-0.469c-0.005-0.023-0.008-0.050-0.008-0.078 0-0.207 0.168-0.375 0.375-0.375 0.18 0 0.33 0.126 0.367 0.295l0 0.002 0.097 0.458c1.309-0.379 2.404-1.154 3.175-2.184l0.011-0.016-0.386-0.251c-0.103-0.068-0.17-0.183-0.17-0.314 0-0.207 0.168-0.375 0.375-0.375 0.075 0 0.146 0.022 0.204 0.061l-0.001-0.001 0.403 0.262c0.493-0.831 0.784-1.831 0.784-2.9 0-0.325-0.027-0.643-0.079-0.953l0.005 0.034zM9 9c-0.060 0.111-2.131 1.582-3.278 2.435-0.041 0.030-0.092 0.048-0.147 0.048-0.138 0-0.249-0.112-0.249-0.249 0-0.034 0.007-0.067 0.019-0.097l-0.001 0.002 1.656-4.139c0.066-0.121 2.133-1.585 3.278-2.435 0.041-0.030 0.092-0.048 0.147-0.048 0.138 0 0.249 0.112 0.249 0.249 0 0.034-0.007 0.067-0.019 0.097l0.001-0.002zM7.25 8.036c-0-0.009-0.001-0.020-0.001-0.032 0-0.407 0.322-0.739 0.725-0.756l0.002-0c0.007-0 0.015-0 0.023-0 0.416 0 0.753 0.337 0.753 0.753 0 0.403-0.317 0.733-0.716 0.752l-0.002 0c-0.008 0-0.018 0-0.027 0-0.404 0-0.734-0.316-0.756-0.715l-0-0.002zM8 0c-4.418 0-8 3.582-8 8s3.582 8 8 8c4.418 0 8-3.582 8-8v0c0-0 0-0.001 0-0.001 0-4.418-3.581-7.999-7.999-7.999-0.001 0-0.001 0-0.001 0h0zM8 15c-3.866 0-7-3.134-7-7s3.134-7 7-7c3.866 0 7 3.134 7 7v0c0 0 0 0.001 0 0.001 0 3.865-3.134 6.999-6.999 6.999-0 0-0.001 0-0.001 0h0z"></path>
</svg>

<svg width="16" height="16" viewBox="0 0 16 16" fill="rgb(34, 34, 34)" xmlns="http://www.w3.org/2000/svg"><title>safari</title><path d="M13.929 7.123L13.458 7.223C13.435 7.228 13.408 7.231 13.381 7.231C13.381 7.231 13.38 7.231 13.379 7.231C13.172 7.231 13.004 7.063 13.004 6.856C13.004 6.676 13.13 6.526 13.299 6.49H13.301L13.757 6.393C13.382 5.082 12.608 3.986 11.577 3.215L11.561 3.204L11.309 3.592C11.241 3.695 11.126 3.762 10.995 3.762C10.788 3.762 10.62 3.594 10.62 3.387C10.62 3.311 10.643 3.24 10.681 3.181L10.68 3.182L10.936 2.787C10.093 2.298 9.082 2.007 8.004 2.002H8.002C7.689 2.005 7.385 2.032 7.089 2.081L7.124 2.076L7.223 2.541C7.228 2.564 7.231 2.591 7.231 2.619C7.231 2.799 7.105 2.949 6.936 2.986H6.934C6.911 2.991 6.884 2.994 6.857 2.994C6.678 2.994 6.526 2.868 6.489 2.7V2.698L6.393 2.245C5.083 2.621 3.987 3.393 3.213 4.422L3.202 4.437L3.592 4.69C3.696 4.758 3.764 4.874 3.764 5.005C3.764 5.212 3.596 5.38 3.389 5.38C3.313 5.38 3.242 5.357 3.182 5.318L3.183 5.319L2.789 5.063C2.299 5.907 2.008 6.919 2.003 7.999C2.006 8.31 2.033 8.614 2.082 8.91L2.077 8.876L2.541 8.777C2.564 8.772 2.591 8.769 2.619 8.769C2.826 8.769 2.994 8.937 2.994 9.144C2.994 9.324 2.868 9.474 2.699 9.51H2.697L2.236 9.608C2.615 10.918 3.39 12.013 4.422 12.784L4.438 12.795L4.69 12.407C4.758 12.304 4.873 12.237 5.004 12.237C5.211 12.237 5.379 12.405 5.379 12.612C5.379 12.687 5.357 12.758 5.318 12.816L5.319 12.815L5.06 13.213C5.904 13.702 6.916 13.993 7.995 13.999H7.997C8.309 13.996 8.613 13.97 8.91 13.921L8.876 13.926L8.776 13.457C8.771 13.434 8.768 13.407 8.768 13.379C8.768 13.172 8.936 13.004 9.143 13.004C9.323 13.004 9.473 13.13 9.51 13.299V13.301L9.607 13.759C10.916 13.38 12.011 12.605 12.782 11.575L12.793 11.559L12.407 11.308C12.304 11.24 12.237 11.125 12.237 10.994C12.237 10.787 12.405 10.619 12.612 10.619C12.687 10.619 12.758 10.641 12.816 10.68L12.815 10.679L13.218 10.941C13.711 10.11 14.002 9.11 14.002 8.041C14.002 7.716 13.975 7.398 13.923 7.088L13.928 7.122L13.929 7.123ZM9 9C8.94 9.111 6.869 10.582 5.722 11.435C5.681 11.465 5.63 11.483 5.575 11.483C5.437 11.483 5.326 11.371 5.326 11.234C5.326 11.2 5.333 11.167 5.345 11.137L5.344 11.139L7 7C7.066 6.879 9.133 5.415 10.278 4.565C10.319 4.535 10.37 4.517 10.425 4.517C10.563 4.517 10.674 4.629 10.674 4.766C10.674 4.8 10.667 4.833 10.655 4.863L10.656 4.861L9 9ZM7.25 8.036C7.25 8.027 7.249 8.016 7.249 8.004C7.249 7.597 7.571 7.265 7.974 7.248H7.976C7.983 7.248 7.991 7.248 7.999 7.248C8.415 7.248 8.752 7.585 8.752 8.001C8.752 8.404 8.435 8.734 8.036 8.753H8.034C8.026 8.753 8.016 8.753 8.007 8.753C7.603 8.753 7.273 8.437 7.251 8.038L7.25 8.036ZM8 0C3.582 0 0 3.582 0 8C0 12.418 3.582 16 8 16C12.418 16 16 12.418 16 8C16 3.582 12.419 0 8.001 0C8 0 8 0 8 0ZM8 15C4.134 15 1 11.866 1 8C1 4.134 4.134 1 8 1C11.866 1 15 4.134 15 8V8.001C15 11.866 11.866 15 8.001 15H8Z" fill="rgb(34, 34, 34)" fill-opacity="1.00"/></svg>
